app/dist/common/images/arrival.svg

<svg height="18" width="18" xmlns="http://www.w3.org/2000/svg"><path d="m0 0h18v18h-18z" fill="#f0f3fa"/><path d="m8.37 4h1.25v3.99l3.74-2 .64 1.02-3.73 1.99 3.73 2-.64 1-3.74-1.99v3.99h-1.25v-3.99l-3.73 2-.64-1.02 3.73-1.99-3.73-2 .64-1 3.73 1.99z"/></svg>

<!-- by TradingView --><svg xmlns="http://www.w3.org/2000/svg" width="18" height="18"><path fill="#F0F3FA" d="M0 0h18v18H0z"/><path d="M8.37 4h1.25v3.99l3.74-2L14 7.01 10.27 9 14 11l-.64 1-3.74-1.99V14H8.37v-3.99l-3.73 2L4 10.99 7.73 9 4 7l.64-1 3.73 1.99V4z"/></svg>
